icons/outline/adjustments-search.svg

<!--
category: System
tags: [settings, find, explore, seek, look, discover, examine, investigate, probe, inspect]
version: "2.10"
unicode: "f809"
-->
<svg
  xmlns="http://www.w3.org/2000/svg"
  width="24"
  height="24"
  viewBox="0 0 24 24"
  fill="none"
  stroke="currentColor"
  stroke-width="2"
  stroke-linecap="round"
  stroke-linejoin="round"
>
  <path d="M4 10a2 2 0 1 0 4 0a2 2 0 0 0 -4 0m2 -6v4m0 4v8m6 -6a2 2 0 0 0 -1.042 3.707m1.042 -13.707v10m4 -7a2 2 0 1 0 4 0a2 2 0 0 0 -4 0m2 -3v1m0 4v2m0 7m-3 0a3 3 0 1 0 6 0a3 3 0 1 0 -6 0m5.2 2.2l1.8 1.8" />
</svg>

<!--
category: System
tags: [settings, find, explore, seek, look, discover, examine, investigate, probe, inspect]
version: "2.10"
unicode: "f809"
-->
<svg
  xmlns="http://www.w3.org/2000/svg"
  width="24"
  height="24"
  viewBox="0 0 24 24"
  fill="none"
  stroke="currentColor"
  stroke-width="2"
  stroke-linecap="round"
  stroke-linejoin="round"
>
    <path d="M4 10a2 2 0 1 0 4 0a2 2 0 0 0 -4 0M6 4v4M6 12v8M12 14a2 2 0 0 0 -1.042 3.707M12 4v10M16 7a2 2 0 1 0 4 0a2 2 0 0 0 -4 0M18 4v1M18 9v2M18 18m-3 0a3 3 0 1 0 6 0a3 3 0 1 0 -6 0M20.2 20.2l1.8 1.8" />
</svg>
